X:1
T:The Japanese Sandman
C:Richard A. Whiting
M:4/4
L:1/8
Q:1/4=120
K:F
% A section – 16 bars, melody only (C4–D5 range)
F2 GA c2 AG | F4 z2 FG | A2 GA c2 dA | G6 GA |
c2 BA G2 AG | F2 GA A4 | G2 FG A2 GF | F6 z2 |
A2 cA d2 cA | G2 FG A2 GA | c2 Bc d2 cA | G6 GA |
c2 AG F2 GA | G2 AG F2 EF | G2 AG F2 ED | F8 |]
